X: 20
T: Mazurka in D\b Major, Op. 30, No. 3
C: Frederic Chopin
%%abc-version 2.0
%%abcx-abcm2ps-target-version 5.9.1 (29 Sep 2008)
%%abc-creator hum2abc beta
%%abcx-conversion-date 2021/01/17 12:55:01
%%abc-edited-by Craig Stuart Sapp
%%abcx-initial-encoding-date 2004/01/13/
%%gracespace 0 6 6
%%humdrum-veritas 488948181
%%humdrum-veritas-data 1186222475
%%linebreak <none>
%%barnumbers 0
L: 1/4
M: 3/4
N: Derived from mazurka30-3.krn
Q: "Allegro non troppo" 1/4=120
%%staves {1 2}
V: 1 clef=treble
V: 2 clef=bass
K: Db
[V:1] z3 | 
[V:2] !accent!A,3 & z3 | 
[V:1] z3 | 
[V:2] !accent!A,3 & z3 | 
[V:1] z3 | 
[V:2] A,!accent!A,2 & z3 | 
[V:1] z3 | 
[V:2] A,!accent!A,2 & z3 | 
[V:1] z3 | 
[V:2] A,F,/G,/A,/B,/ & z3 | 
[V:1] z3 | 
[V:2] A,F,/G,/A,/B,/ & z3 | 
[V:1] z3 | 
[V:2] (3A,/B,/A,/ F,/G,/A,/B,/ & z3 | 
[V:1] A,/D/E/G/F/E/ ]|:  
[V:2] z3 ]|:  
[V:1] .[D/F/]z//[E//G//][=E=G][FA] | 
[V:2] .[D,,,/D,,/]z//D//F,A,, | 
[V:1] [G/B/]z//[F//A//][d2f2] | 
[V:2] .D,,/z//D//F,A,, | 
[V:1] [c/e/]z//[B//d//][GB][B,G] | 
[V:2] .G,,,/z//B,//D,G,, | 
[V:1] .[A,/F/]z//!wedge![G//B//]!accent![F2A2] | 
[V:2] .D,,/z//D//F,A,, | 
[V:1] [c/e/]z//[__B//d//][GB].[__B,G] | 
[V:2] .G,,,/z//__B,//D,G,, | 
[V:1] .[A,/F/]z//[G//__B//][F2A2] | 
[V:2] .D,,/z//D//F,A,, | 
[V:1] .[A,/F/]z//[G//B//][F2A2] | 
[V:2] .[D,,,/D,,/]z//D//F,A,, | 
[V:1] .[A,/F/]z//[G//__B//][F2A2] | 
[V:2] .D,,/z//D//F,A,, | 
[V:1] .[G/B/]z//[A//c//][Bd][ce] | 
[V:2] .A,,,/z//C//G,A,, | 
[V:1] [d/f/]z//[e//g//][=e=g][fa] | 
[V:2] .D,,/z//D//F,A,, | 
[V:1] .[a/c'/]z//[g//b//][fa][eg] | 
[V:2] .A,,,/z//C//G,A,, | 
[V:1] [d/f/]z//[A//e//]!accent![F2d2] | 
[V:2] .D,,/z//D//F,A,, | 
[V:1] [G/__B/][A/c/][Bd][ce] | 
[V:2] .A,,,/C/G,A,, | 
[V:1] [d/_f/][e/=g/][fa][_g__b] | 
[V:2] .D,,/D/_F,A,, | 
[V:1] .[a/c'/]z//[g//__b//][_fa][eg] | 
[V:2] .A,,,/z//C//G,A,, | 
[V:1] [d/_f/]>[A/e/][_F2d2] :|]  
[V:2] .D,,/z//D//_F,A,, :|]  
[V:1] !accent!_f3- | 
[V:2] [G,,,G,,][G,B,_F][G,B,F] | 
[V:1] f/e/=d/e/_c'3//e// | 
[V:2] [G,_CE][G,CE][G,CE] | 
[V:1] a>g_f/d/ | 
[V:2] G,,[G,B,_F][G,B,F] | 
[V:1] d/e/_c2 | 
[V:2] _C,[G,_CE][G,CE] | 
[V:1] e3- | 
[V:2] F,,[F,=A,E][F,A,E] | 
[V:1] e/=d/^c/d/b3//d// | 
[V:2] [F,B,=D][F,B,D][F,B,D] | 
[V:1] =g>fe/=c/ | 
[V:2] F,,[F,=A,E][F,A,E] | 
[V:1] c/=d/B2 | 
[V:2] B,,[F,B,=D][F,B,D] | 
[V:1] z!accent!_f2- | 
[V:2] [=G,B,D=E][G,B,D_F][_G,B,DF] | 
[V:1] f/e/=d/e/_c'3//e// | 
[V:2] [G,_CE][G,CE][G,CE] | 
[V:1] a>g_f/d/ | 
[V:2] G,,[G,B,_F][G,B,F] | 
[V:1] d/z//e//_c2 | 
[V:2] _C,[G,_CE][G,CE] | 
[V:1] e3- | 
[V:2] [F,=A,E][F,A,E][F,A,E] | 
[V:1] e/=d/^c/d/b3//d// | 
[V:2] [F,B,=D][F,B,D][F,B,D] | 
[V:1] =g>fe/=c/ | 
[V:2] F,,[F,=A,E][F,A,E] | 
[V:1] _cB2 | 
[V:2] [F,A,=D][=E,2=G,2_D2] | 
[V:1] .=E/z//=G//BA | 
[V:2] [D,=E,B,][D,E,B,][D,E,B,] | 
[V:1] =GFz | 
[V:2] [D,=E,B,][D,F,B,][D,F,B,] | 
[V:1] =G/B/dc | 
[V:2] [D,=E,B,][D,E,B,][D,E,B,] | 
[V:1] BAz | 
[V:2] [D,F,B,][D,F,=B,][C,F,C] | 
[V:1] =B/=d/f=e | 
[V:2] [C,F,=D][C,F,A,][C,F,=G,] | 
[V:1] =dcz | 
[V:2] [C,F,=G,][C,=E,G,][C,=D,G,] | 
[V:1] =e/=g<ba/ | 
[V:2] C,[=G,B,=E][G,B,E] | 
[V:1] =g2f | 
[V:2] F,,[A,CF][A,CF] | 
[V:1] =E/>=G/[D3/B3/][C/A/] & !accent!=E3- | 
[V:2] .C,,[C,=E,B,][C,E,B,] | 
[V:1] [B,=G]zz & E[A,F]z | 
[V:2] F,,[C,F,][C,F,] | 
[V:1] =G/>B/[F3/d3/][E/c/] & =G3 | 
[V:2] .E,,.[E,=G,D][E,G,D] | 
[V:1] [DB]zz & F[CA]z | 
[V:2] A,,[E,A,][E,A,] | 
[V:1] =B/>=d/[A3/f3/][=G/=e/] & =B3- | 
[V:2] .=G,,[=G,=B,F][G,B,F] | 
[V:1] [F=d]zz & B[=Ec]=e- | 
[V:2] C,[=G,C]z | 
[V:1] e/>=g/[d3/b3/][c/a/] & e3 | 
[V:2] .C,,[=G,B,=E][G,B,E] | 
[V:1] [B2e2=g2][Af]- | 
[V:2] .F,,[D=E][CF] & zF,2 | 
[V:1] [A/f/][G/e/][F/=d/][G/e/][A/f/][B/g/] | 
[V:2] .G,,[G,B,E][G,B,E] | 
[V:1] .[B/g/]z//[B//g//]!accent![F3/d3/][A/f/] | 
[V:2] .A,,[F,A,D][F,A,D] | 
[V:1] zc7//e// & .[A/f/]z//[A//f//]!accent!E2 | 
[V:2] .A,,[E,G,C].=A,, | 
[V:1] e/z//d//d3/d/- & GF2- | 
[V:2] z[F,D]z & B,,2z | 
[V:1] [F/d/][E/c/][=D/=B/][E/c/][F/d/][G/e/] | 
[V:2] .E,,[E,G,C][E,G,C] | 
[V:1] [G/e/]z//[G//e//][D3/B3/][F/d/] | 
[V:2] .F,,[D,B,][D,B,] | 
[V:1] [F/d/]z//[Fd]<<=Ac// & z!accent!C2 | 
[V:2] z[C,=A,][C,A,] & F,,3 | 
[V:1] c/z//B//Bz/ [F/d/] & EDz | 
[V:2] B,,,[B,,F,B,]z | 
[V:1] Gzz & z/ e/[F/=d/][G/e/][A/f/][B/g/] | 
[V:2] .[A,,,A,,][E,G,A,C][E,G,A,C] | 
[V:1] (3[B/g/][B/g/][B/g/][Fd]z/ .[A/f/] | 
[V:2] .[D,,D,][F,A,D][F,A,D] | 
[V:1] (3[A/f/][A/f/][A/f/].[Ec]z/ z// e//- | 
[V:2] .A,,[E,G,C].=A,, | 
[V:1] e/z//d//d3/d/- & G!accent!F2- | 
[V:2] z!accent![F,D]z & B,,2z | 
[V:1] [F/d/][E/c/][=D/=B/][E/c/][F/d/][G/e/] | 
[V:2] .E,,[E,G,C][E,G,C] | 
[V:1] (3[G/e/][G/e/][G/e/][DB]z/ [F/d/] | 
[V:2] z[D,B,]z & F,,2z | 
[V:1] (3[F/d/][F/d/][F/d/][C=A]z/ [E/c/] | 
[V:2] .F,,,[F,,C,=A,]z | 
[V:1] [F/d/][F/d/][C=A][Ec] | 
[V:2] z3 | 
[V:1] z3 | 
[V:2] F,3- & .F,,.F,,z | 
[V:1] z3 | 
[V:2] F,3- & .=E,,.E,,z | 
[V:1] [F/d/][F/d/][C=A][Ec] | 
[V:2] F,3- | 
[V:1] [F/d/][F/d/][C=A][Ec] | 
[V:2] F,3- | 
[V:1] z3 | 
[V:2] F,3- & .E,,.E,,z | 
[V:1] z3 | 
[V:2] F,3 & .__E,,.E,,z | 
[V:1] [D/F/]z//[E//G//][=E=G][FA] | 
[V:2] .D,,/z//D//F,A,, | 
[V:1] [G/B/]z//[F//A//][d2f2] | 
[V:2] .D,,/z//D//F,A,, | 
[V:1] [c/e/]z//[B//d//][GB][B,G] | 
[V:2] .G,,,/z//B,//D,G,, | 
[V:1] .[A,/F/]z//[G//B//][F2A2] | 
[V:2] .D,,/z//D//F,A,, | 
[V:1] .[c/e/]z//[__B//d//][GB][__B,G] | 
[V:2] G,,,/z//__B,//D,G,, | 
[V:1] [A,/F/]z//[G//__B//][F2A2] | 
[V:2] .D,,/z//D//F,A,, | 
[V:1] [A,/F/]z//[G//B//][F2A2] | 
[V:2] .[D,,,/D,,/]z//D//F,A,, | 
[V:1] [A,/F/]z//[G//__B//][F2A2] | 
[V:2] .D,,/z//D//F,A,, | 
[V:1] [G/B/]z//[A//c//][Bd][ce] | 
[V:2] .A,,,/z//C//G,A,, | 
[V:1] .[d/f/]z//[e//g//][=e=g][fa] | 
[V:2] .D,,/z//D//F,A,, | 
[V:1] .[a/c'/]z//[g//b//][fa][eg] | 
[V:2] A,,,/z//C//G,A,, | 
[V:1] .[d/f/]z//[A//e//]!accent![F2d2] | 
[V:2] .D,,/z//D//F,A,, | 
[V:1] [G/__B/][A/c/][Bd][ce] | 
[V:2] .A,,,/C/G,A,, | 
[V:1] [d/_f/][e/=g/][fa][_g__b] | 
[V:2] .D,,/D/_F,A,, | 
[V:1] .[a/c'/]z//[g//__b//][_fa][eg] | 
[V:2] A,,,/z//C//G,A,, | 
[V:1] [d/_f/][A/e/][_F2d2] | 
[V:2] .D,,/D/_F,A,, | 
[V:1] !fermata!=F3 |]  
[V:2] !fermata![D,3A,3] |]  


